src/img/svg/icons/contacts/icon-number.svg

<svg width="17" height="28" viewBox="0 0 17 28" fill="none" xmlns="http://www.w3.org/2000/svg">
<path d="M16.8629 25.8206V2.17365C16.8629 0.978141 15.8905 0 14.6893 0H2.17365C0.978141 0 0 0.972421 0 2.17365V25.8264C0 27.0219 0.972421 28 2.17365 28H14.6893C15.8848 27.9943 16.8629 27.0219 16.8629 25.8206ZM1.40143 5.03943H15.4558V20.9528H1.40143V5.03943ZM2.17365 1.40143H14.6893C15.1126 1.40143 15.4615 1.74464 15.4615 2.17365V3.638H1.40143V2.17365C1.40143 1.74464 1.75036 1.40143 2.17365 1.40143ZM1.40143 25.8206V22.3485H15.4558V25.8206C15.4558 26.2439 15.1126 26.5928 14.6836 26.5928H2.17365C1.75036 26.5928 1.40143 26.2496 1.40143 25.8206Z" fill="#656565"/>
<path d="M2.17365 1.40143H14.6893C15.1126 1.40143 15.4615 1.74464 15.4615 2.17365V3.638H1.40143V2.17365C1.40143 1.74464 1.75036 1.40143 2.17365 1.40143Z" fill="#656565"/>
<path d="M1.40143 25.8206V22.3485H15.4558V25.8206C15.4558 26.2439 15.1126 26.5928 14.6836 26.5928H2.17365C1.75036 26.5928 1.40143 26.2496 1.40143 25.8206Z" fill="#656565"/>
</svg>

<?xml version="1.0" encoding="utf-8"?>
<!-- Generator: Adobe Illustrator 24.0.2, SVG Export Plug-In . SVG Version: 6.00 Build 0)  -->
<svg version="1.1" id="Layer_1" xmlns="http://www.w3.org/2000/svg" xmlns:xlink="http://www.w3.org/1999/xlink" x="0px" y="0px"
	 viewBox="0 0 17 28" enable-background="new 0 0 17 28" xml:space="preserve">
<path fill="#656565" d="M16.9,25.8V2.2c0-1.2-1-2.2-2.2-2.2H2.2C1,0,0,1,0,2.2v23.7C0,27,1,28,2.2,28h12.5
	C15.9,28,16.9,27,16.9,25.8z M1.4,5h14.1V21H1.4V5z M2.2,1.4h12.5c0.4,0,0.8,0.3,0.8,0.8v1.5H1.4V2.2C1.4,1.7,1.8,1.4,2.2,1.4z
	 M1.4,25.8v-3.5h14.1v3.5c0,0.4-0.3,0.8-0.8,0.8H2.2C1.8,26.6,1.4,26.2,1.4,25.8z"/>
<path fill="#656565" d="M2.2,1.4h12.5c0.4,0,0.8,0.3,0.8,0.8v1.5H1.4V2.2C1.4,1.7,1.8,1.4,2.2,1.4z"/>
<path fill="#656565" d="M1.4,25.8v-3.5h14.1v3.5c0,0.4-0.3,0.8-0.8,0.8H2.2C1.8,26.6,1.4,26.2,1.4,25.8z"/>
</svg>
